img/two_user.svg

<svg width="24" height="25" viewBox="0 0 24 25" fill="none" xmlns="http://www.w3.org/2000/svg">
<path d="M5.11738 9.40622C5.11738 7.2602 6.8738 5.52051 9.04046 5.52051C11.2071 5.52051 12.9635 7.2602 12.9635 9.40622C12.9635 11.5522 11.2071 13.2919 9.04046 13.2919C6.8738 13.2919 5.11738 11.5522 5.11738 9.40622Z" fill="#1552F0"/>
<path d="M6.56092 15.0467L6.72532 15.0207C8.25904 14.7783 9.82189 14.7783 11.3556 15.0207L11.52 15.0467C13.6811 15.3883 15.2712 17.2346 15.2712 19.4022C15.2712 20.5722 14.3137 21.5206 13.1325 21.5206H4.94843C3.76724 21.5206 2.80969 20.5722 2.80969 19.4022C2.80969 17.2346 4.39985 15.3883 6.56092 15.0467Z" fill="#1552F0"/>
<path d="M14.5789 5.52051C14.1966 5.52051 13.8866 5.82751 13.8866 6.20622C13.8866 6.58493 14.1966 6.89194 14.5789 6.89194C15.9809 6.89194 17.1174 8.01762 17.1174 9.40622C17.1174 10.7948 15.9809 11.9205 14.5789 11.9205C14.1966 11.9205 13.8866 12.2275 13.8866 12.6062C13.8866 12.9849 14.1966 13.2919 14.5789 13.2919C16.7456 13.2919 18.502 11.5522 18.502 9.40622C18.502 7.2602 16.7456 5.52051 14.5789 5.52051Z" fill="#1552F0"/>
<path d="M15.7246 15.0117C15.3423 15.0117 15.0323 15.3187 15.0323 15.6974C15.0323 16.0761 15.3423 16.3831 15.7246 16.3831H16.6183C16.6926 16.3831 16.767 16.3889 16.8403 16.4005C18.3294 16.6359 19.4251 17.9081 19.4251 19.4017C19.4251 19.8142 19.0875 20.1486 18.671 20.1486H16.785C16.4026 20.1486 16.0927 20.4557 16.0927 20.8344C16.0927 21.2131 16.4026 21.5201 16.785 21.5201H18.671C19.8522 21.5201 20.8097 20.5717 20.8097 19.4017C20.8097 17.2341 19.2195 15.3878 17.0585 15.0462C16.9129 15.0232 16.7656 15.0117 16.6183 15.0117H15.7246Z" fill="#1552F0"/>
</svg>

<svg width="24" height="25" fill="none" xmlns="http://www.w3.org/2000/svg"><path d="M5.117 9.406c0-2.146 1.757-3.885 3.923-3.885 2.167 0 3.924 1.74 3.924 3.885 0 2.146-1.757 3.886-3.924 3.886-2.166 0-3.923-1.74-3.923-3.886ZM6.56 15.047l.165-.026a14.832 14.832 0 0 1 4.63 0l.165.026c2.161.341 3.751 2.188 3.751 4.355 0 1.17-.957 2.119-2.139 2.119H4.949a2.129 2.129 0 0 1-2.138-2.119c0-2.167 1.59-4.014 3.75-4.355ZM14.579 5.52a.69.69 0 0 0-.692.686c0 .379.31.686.692.686 1.402 0 2.538 1.126 2.538 2.514 0 1.389-1.136 2.514-2.538 2.514a.69.69 0 0 0-.692.686c0 .379.31.686.692.686 2.167 0 3.923-1.74 3.923-3.886s-1.756-3.885-3.923-3.885ZM15.725 15.012a.69.69 0 0 0-.693.685c0 .38.31.686.693.686h.893c.075 0 .149.006.222.018a3.048 3.048 0 0 1 2.585 3 .75.75 0 0 1-.754.748h-1.886a.69.69 0 0 0-.692.685c0 .38.31.686.692.686h1.886a2.129 2.129 0 0 0 2.139-2.118c0-2.168-1.59-4.014-3.752-4.356a2.822 2.822 0 0 0-.44-.034h-.893Z" fill="#1552F0"/></svg>
